X: 2983
T: Bat In The Hat, The
R: reel
M: 4/4
K: Dmixolydian
Add^c d2AB|=cdeg dcAG|FDFA dedB|=cAGE FDFA|
d2d^c d2AB|=cdeg dcAG|FDFA dedB|=cAGE FDD2||
|:faaf a2ag|fadf efge|afdf e3g|fefd e=cAc|
dfaf a2ag|fgaf geag|fdAF G2FG|1 ABde d2de:|2 ABde d3c||

